symbols/web/phonelink_ring/materialsymbolssharp/phonelink_ring_wght700gradN25_48px.svg

<svg xmlns="http://www.w3.org/2000/svg" height="48" width="48"><path d="m42.4 34.2-1.95-2.05q1.6-1.6 2.525-3.75.925-2.15.925-4.5t-.95-4.475Q42 17.3 40.1 15.85l2.2-2.2q2.15 2.05 3.3 4.7 1.15 2.65 1.15 5.6 0 2.95-1.125 5.6Q44.5 32.2 42.4 34.2Zm-4.1-4.1-1.95-2q.85-.75 1.275-1.875.425-1.125.425-2.325 0-1.2-.4-2.35-.4-1.15-1.25-1.95l1.9-2q1.25 1.25 1.925 2.85t.675 3.4q0 1.75-.675 3.375T38.3 30.1ZM13.65 42.3H34.4v-1.55H13.65Zm0-35.1H34.4V5.65H13.65Zm-4.6 39.7V1.1h29.9v11.15H34.4V10.1H13.65v27.8H34.4v-2.2h4.55v11.2Zm4.6-39.7V5.65 7.2Zm0 35.1v-1.55 1.55Z"/></svg>

<svg xmlns="http://www.w3.org/2000/svg" height="48" width="48"><path d="M42.4 34.2 40.45 32.15Q42.05 30.55 42.975 28.4Q43.9 26.25 43.9 23.9Q43.9 21.55 42.95 19.425Q42 17.3 40.1 15.85L42.3 13.65Q44.45 15.7 45.6 18.35Q46.75 21 46.75 23.95Q46.75 26.9 45.625 29.55Q44.5 32.2 42.4 34.2ZM38.3 30.1 36.35 28.1Q37.2 27.35 37.625 26.225Q38.05 25.1 38.05 23.9Q38.05 22.7 37.65 21.55Q37.25 20.4 36.4 19.6L38.3 17.6Q39.55 18.85 40.225 20.45Q40.9 22.05 40.9 23.85Q40.9 25.6 40.225 27.225Q39.55 28.85 38.3 30.1ZM13.65 42.3H34.4V40.75H13.65ZM13.65 7.2H34.4V5.65H13.65ZM9.05 46.9V1.1H38.95V12.25H34.4V10.1H13.65V37.9H34.4V35.7H38.95V46.9ZM13.65 7.2V5.65V7.2ZM13.65 42.3V40.75V42.3Z"/></svg>
